X: 22362
T: Lad From Mt. Kisco, The
R: jig
M: 6/8
K: Dmajor
DFA BAF|e2 g fdB|AFA BdB|AFD EDB,|
DFA BAF|efg fdB|AFA BdB|AFE D3:|
def a2 b|baf afd|Adg fdB|Adf e3|
def a2 b|baf afd|Adg fdB|AFE D3:|

